X: 8602
T: Cronin's
R: hornpipe
M: 4/4
K: Gmajor
|:BA|GABd dBde|gage dega|bage dBGA|BAAG AcBA|
GABd dBde|gage dega|bage dBAB|G2 GF G2:|
|:fg|add^c d2ga|beed e2ga|bgaf (3gfe dB|BAAG AcBA|
GABd dBde|gage dega|bage dBAB|G2 GF G2:|

